X:1
T:Woodcutters Jig (The)
R:jig 32
C:P J Headford
M:6/8
L:1/8
Q:1/4=140
K:G
|:B2G GFG|.F2F D2c|BcB AGF|GAB A3|
B2G GFG|1.F2F E2c|BcB AGF|G3- G2A:|2
FED d2c|B2B ABA|G3 G2A||!
:B2d dcB|c2e f2e|ded cdc|BcB A3|
B2d dcB|1c2e f2e|ded cBA|G6:|2
c2e g2e|dcB cAF|G6|]
